X:1
T:Title
%%score { ( 1 5 ) | ( 2 3 4 ) }
L:1/8
M:4/4
K:F
V:1 treble nm="Grand Piano"
V:5 treble 
V:2 bass 
V:3 bass 
V:4 bass 
V:1
 z4 z[Q:1/4=84] A_A=A | [DB]3 A [=B,_A]=A[_B,E]F | z2 [B,G]4 z2 | [CE]3 [Bd] [Bd][Ac][_A=B][G_B] | %4
 [FA]6 z2 | [Ac]3 A [_EA]B[Ec]d | [_Ec]2 [DB]2- [DB]F[^CG]F | A3 A [=B,G]D^CD | %8
[M:11/16] G/-G/-G/-G/-G/-G/-G/-G-<G |[M:9/16] [Ec]3/2[F=B]3/2[G_B]3/2 |[M:4/4] z CCc dcBA | %11
 [Ac]>=B [CG_B]2- [CGB]CEG | [EB]4 z4 | z4 CAAB | c3 A GFAc | [Dc]2 [DB]2- [DB][FB][Fc][Fd] | %16
[M:9/8] [Fc]3 [CFA][=B,FA]>[B,FG]- [B,FG]<[CEA][_B,EG] |[M:11/16] F/-F/-F/-F/-F/-F/-F/-F-<F |] %18
V:2
 z4 z C=B,C | z F, z C z C z A, | B,,,B,,D,B,, D,B,DB, | C,,C,B,C, C,,C,[E,B,]C, | %4
 F,,C,F,C, F,[K:treble]FFG | z F, z F z _E z F | z F,F,F, z D z ^C | %7
 [C,F,C]3 C D,[F,=B,][E,_B,][F,=B,] | %8
[M:11/16] [C,E,B,]/-[C,E,B,]/-[C,E,B,]/-[C,E,B,]/-[C,E,B,]/-[C,E,B,]/-[C,E,B,]/-[C,E,B,]-<[C,E,B,] | %9
[M:9/16] [D,G,]3/2[D,G,]3/2[E,C]3/2 |[M:4/4] [F,C]F,F,[K:treble][F,A,F] [B,F][A,CF][G,CE][F,CF] | %11
 z z/ _A/ C,2- C,C,E,G, | [C,G,]C,C,[C,G,] [C,B,][C,A,][C,_A,][C,G,] | %13
 z A,D^C F,[K:treble][F,=CF][F,CF][G,CF] | [A,CF]3 [F,CF][K:bass] [F,B,_E][F,A,E][F,CE][F,A,E] | %15
 [B,,F,]2 [B,,F,]2- [B,,F,][D,B,][C,A,][=B,,_A,] |[M:9/8] [C,A,]3 C,G,,>G,,- G,,<C,C, | %17
[M:11/16] z CB,B,A,3/2 |] %18
V:3
 x8 | z2 F,2 F,2 F,2 | x8 | x8 | x5[K:treble] x3 | z2 F,2 F,2 F,2 | z4 F,2 F,2 | z4 G,,4 | %8
[M:11/16] x11/2 |[M:9/16] x9/2 |[M:4/4] x3[K:treble] x5 | [C,C]2 z2 z4 | x8 | F,4 z4[K:treble] | %14
 x4[K:bass] x4 | x8 |[M:9/8] x9 |[M:11/16] F,,/-F,,/-F,,/-F,,/-F,,/-F,,/-F,,/-F,,-<F,, |] %18
V:4
 x8 | F,,8 | x8 | x8 | x5[K:treble] x3 | F,,8 | B,,8 | x8 |[M:11/16] x11/2 |[M:9/16] x9/2 | %10
[M:4/4] x3[K:treble] x5 | x8 | x8 | x5[K:treble] x3 | x4[K:bass] x4 | x8 |[M:9/8] x9 | %17
[M:11/16] x11/2 |] %18
V:5
 x8 | x8 | [B,A]2 .G,2 G,DFD | x8 | z2 .A,2 A,AAB | x8 | x8 | x8 |[M:11/16] x11/2 |[M:9/16] x9/2 | %10
[M:4/4] [FA]4 z4 | x8 | z G,G,[EB] [Ed][Ec][F=B][E_B] | [FA]6 z2 | x8 | x8 |[M:9/8] x9 | %17
[M:11/16] A,ED^C=C3/2 |] %18

